src/Images/icons/heart.svg

<svg width="48" height="48" viewBox="0 0 48 48" fill="none" xmlns="http://www.w3.org/2000/svg">
<g clip-path="url(#clip0_5252_15571)">
<path d="M39.4 32.2222C42.678 29.14 46 25.4456 46 20.6111C46 17.5317 44.7252 14.5783 42.456 12.4008C40.1868 10.2233 37.1091 9 33.9 9C30.028 9 27.3 10.0556 24 13.2222C20.7 10.0556 17.972 9 14.1 9C10.8909 9 7.8132 10.2233 5.54401 12.4008C3.27482 14.5783 2 17.5317 2 20.6111C2 25.4667 5.3 29.1611 8.6 32.2222L24 47L39.4 32.2222Z" stroke="#424436" stroke-width="2.2" stroke-linecap="round" stroke-linejoin="round"/>
</g>
<defs>
<clipPath id="clip0_5252_15571">
<rect width="48" height="48" fill="white"/>
</clipPath>
</defs>
</svg>

<?xml version="1.0" encoding="UTF-8"?>
<svg id="Layer_1" xmlns="http://www.w3.org/2000/svg" xmlns:xlink="http://www.w3.org/1999/xlink" version="1.1" viewBox="0 0 48 48">
  <!-- Generator: Adobe Illustrator 30.0.0, SVG Export Plug-In . SVG Version: 2.1.1 Build 123)  -->
  <defs>
    <style>
      .st0 {
        fill: none;
      }

      .st1 {
        fill: #fff;
        stroke: #92a134;
        stroke-linecap: round;
        stroke-linejoin: round;
        stroke-width: 2.2px;
      }

      .st2 {
        clip-path: url(#clippath);
      }
    </style>
    <clipPath id="clippath">
      <rect class="st0" width="48" height="48"/>
    </clipPath>
  </defs>
  <g class="st2">
    <path class="st1" d="M39.4,32.2c3.3-3.1,6.6-6.8,6.6-11.6s-1.3-6-3.5-8.2c-2.3-2.2-5.3-3.4-8.6-3.4s-6.6,1.1-9.9,4.2c-3.3-3.2-6-4.2-9.9-4.2s-6.3,1.2-8.6,3.4c-2.3,2.2-3.5,5.1-3.5,8.2,0,4.9,3.3,8.6,6.6,11.6l15.4,14.8s15.4-14.8,15.4-14.8Z"/>
  </g>
</svg>
